X:1
T: The Edinburgh Castle Reel
R: reel
B: RSCDS "Scottish Country Dances for Children"
Z: 1997 by John Chambers <jc:trillian.mit.edu>
M: C|
L: 1/8
%
K: A
|: F \
| "A"ECA,C E2EF | ABcA "Bm"BB,B,F | "A"ECA,C E2EF | "E7"EFAB "A"cAA :|
|| e \
| "A"AAcA eAA=g | "D"fd"A"ec "E7"dBBe | "A"AAcA eAA=g | "D"(3f^ga "E7"ea "A"cAA ||
|| e \
| "A"AAcA eAA=g | "D"fd"A"ec "E7"dBBd | "A"cAGA "D"FAdf | "E7"efga "A"cAA |]
